svg/Pictogram/pictograms-aem-0115-crush_of_whole_body-loader_bucket_or_lift_arm.svg

<?xml version="1.0" encoding="ISO-8859-1" standalone="yes"?>
<svg height="305.909" width="305.905">
  <metadata>
    <rdf:RDF xmlns:cc="http://web.resource.org/cc/" xmlns:dc="http://purl.org/dc/elements/1.1/" xmlns:rdf="http://www.w3.org/1999/02/22-rdf-syntax-ns#">
      <cc:Work rdf:about="">
        <dc:title></dc:title>
        <dc:description></dc:description>
        <dc:subject>
          <rdf:Bag>
            <rdf:li></rdf:li>
          </rdf:Bag>
        </dc:subject>
        <dc:publisher>
          <cc:Agent rdf:about="http://www.unece.org/trans/danger/publi/ghs/pictograms.html">
            <dc:title>Source: UNECE GHS of Classification and Labeling of Chemicals, Source: AEM Pictorial Database, Source: AEM Pictorial Database, Source: AEM Pictorial Database, Source: AEM Pictorial Database</dc:title>
          </cc:Agent>
        </dc:publisher>
        <dc:creator>
          <cc:Agent>
            <dc:title></dc:title>
          </cc:Agent>
        </dc:creator>
        <dc:rights>
          <cc:Agent>
            <dc:title></dc:title>
          </cc:Agent>
        </dc:rights>
        <dc:date></dc:date>
        <dc:format>image/svg+xml</dc:format>
        <dc:type rdf:resource="http://purl.org/dc/dcmitype/StillImage"/>
        <cc:license rdf:resource="http://en.wikipedia.org/wiki/Public_domain"/>
        <dc:language>en</dc:language>
      </cc:Work>
    </rdf:RDF>
  </metadata>
  <defs><marker id="ArrowEnd" markerHeight="3" markerUnits="strokeWidth" markerWidth="4" orient="auto" refX="0" refY="5" viewBox="0 0 10 10"><path d="M 0 0 L 10 5 L 0 10 z"/></marker><marker id="ArrowStart" markerHeight="3" markerUnits="strokeWidth" markerWidth="4" orient="auto" refX="10" refY="5" viewBox="0 0 10 10"><path d="M 10 0 L 0 5 L 10 10 z"/></marker> </defs>
  <g id="g2958" transform="matrix(1.3532768,0,0,1.3532781,-53.207834,-52.192858)">
    <path d="M 41.4798 254.999L 261.546 254.999L 261.546 250.687L 41.4798 250.687L 41.4798 254.999z" style="stroke:none; fill-rule:evenodd; fill:#000000"/>
    <path d="M 211.503 135.671C 218.53 135.671 224.229 130.292 224.229 123.659C 224.229 117.022 218.53 111.643 211.503 111.643C 204.479 111.643 198.784 117.022 198.784 123.659C 198.784 130.292 204.479 135.671 211.503 135.671" style="stroke:none; fill-rule:evenodd; fill:#000000"/>
    <path d="M 193.436 210.425C 193.589 211.011 193.671 211.636 193.671 212.273C 193.671 214.695 192.526 216.859 190.722 218.32L 161.397 245.413C 160.261 246.062 158.929 246.421 157.503 246.421C 153.296 246.421 149.886 243.206 149.886 239.23C 149.886 237.245 150.737 235.449 152.116 234.14L 177.503 209.894L 169.229 178.976L 158.487 206.523C 157.143 208.878 154.581 210.531 151.597 210.703L 111.116 213.183C 106.909 213.183 103.499 209.96 103.499 205.984C 103.499 202.011 106.909 198.796 111.116 198.796L 146.558 196.132L 156.991 168.436C 158.073 164.702 161.671 157.061 166.167 153.495C 170.667 149.921 193.698 130.046 193.698 130.046L 214.921 143.128L 249.284 143.128C 252.94 143.128 255.901 145.925 255.901 149.378C 255.901 152.823 252.94 155.616 249.284 155.616L 229.854 156.89L 254.538 173.647C 256.432 174.745 257.702 176.722 257.702 178.976C 257.702 182.425 254.737 185.222 251.085 185.222C 250.194 185.222 249.339 185.058 248.565 184.757L 203.768 155.015L 183.975 176.936L 193.436 210.425" style="stroke:none; fill-rule:evenodd; fill:#000000"/>
    <path d="M 164.448 109.479C 166.729 111.726 166.753 115.397 164.507 117.679C 162.257 119.96 158.589 119.983 156.308 117.737C 154.026 115.487 153.999 111.815 156.249 109.538C 158.499 107.257 162.167 107.229 164.448 109.479" style="stroke:none; fill-rule:evenodd; fill:#000000"/>
    <path d="M 262.182 57.2104L 255.893 54.6714L 187.854 109.573C 187.421 106.397 186.452 103.393 185.046 100.651L 246.409 51.0614L 240.124 48.5224L 181.667 95.5184C 181.643 95.4914 181.624 95.4644 181.604 95.4364L 140.714 55.5814L 62.9524 129.976L 54.7649 129.976L 43.1009 141.097L 161.034 141.112C 174.651 140.768 185.839 130.628 187.811 117.476L 262.182 57.2104zM 159.964 130.073L 154.261 129.933L 78.9407 129.933L 140.39 71.3044L 172.78 102.085C 175.343 105.05 176.89 108.917 176.89 113.143C 176.89 122.491 169.311 130.073 159.964 130.073" style="stroke:none; fill-rule:evenodd; fill:#000000"/>
    <path d="M 29.6204 267.288L 2.62042 267.288" style="stroke:#000000; stroke-width:0.5; fill:none"/>
    <path d="M 38.6204 276.288L 38.6204 303.288" style="stroke:#000000; stroke-width:0.5; fill:none"/>
    <path d="M 29.6204 38.6244L 2.62042 38.6244" style="stroke:#000000; stroke-width:0.5; fill:none"/>
    <path d="M 38.6204 29.6244L 38.6204 2.62042" style="stroke:#000000; stroke-width:0.5; fill:none"/>
    <path d="M 276.284 38.6244L 303.284 38.6244" style="stroke:#000000; stroke-width:0.5; fill:none"/>
    <path d="M 267.284 29.6244L 267.284 2.62042" style="stroke:#000000; stroke-width:0.5; fill:none"/>
    <path d="M 276.284 267.288L 303.284 267.288" style="stroke:#000000; stroke-width:0.5; fill:none"/>
    <path d="M 267.284 276.288L 267.284 303.288" style="stroke:#000000; stroke-width:0.5; fill:none"/>
  </g>
</svg>

<svg viewBox="0 0 305.9 305.91"><g transform="matrix(1.35328 0 0 1.35328-53.21-52.19)" fill-rule="evenodd"><path d="m41.48 255h220.07v-4.312h-220.07v4.312"/><path d="m211.5 135.67c7.03 0 12.726-5.379 12.726-12.01 0-6.637-5.699-12.02-12.726-12.02-7.02 0-12.719 5.379-12.719 12.02 0 6.633 5.695 12.01 12.719 12.01"/><path d="m193.44 210.43c.153.586.235 1.211.235 1.848 0 2.422-1.145 4.586-2.949 6.05l-29.325 27.09c-1.136.649-2.468 1.01-3.894 1.01-4.207 0-7.617-3.215-7.617-7.191 0-1.985.851-3.781 2.23-5.09l25.387-24.25-8.274-30.918-10.742 27.547c-1.344 2.355-3.906 4.01-6.89 4.18l-40.481 2.48c-4.207 0-7.617-3.223-7.617-7.199 0-3.973 3.41-7.188 7.617-7.188l35.442-2.664 10.433-27.696c1.082-3.734 4.68-11.375 9.176-14.941 4.5-3.574 27.531-23.449 27.531-23.449l21.22 13.08h34.36c3.656 0 6.617 2.797 6.617 6.25 0 3.445-2.961 6.238-6.617 6.238l-19.43 1.274 24.684 16.757c1.894 1.098 3.164 3.075 3.164 5.329 0 3.449-2.965 6.246-6.617 6.246-.891 0-1.746-.164-2.52-.465l-44.797-29.742-19.793 21.921 9.461 33.489"/><path d="m164.45 109.48c2.281 2.247 2.305 5.918.059 8.2-2.25 2.281-5.918 2.304-8.199.058-2.282-2.25-2.309-5.922-.059-8.199 2.25-2.281 5.918-2.309 8.199-.059"/><path d="m262.18 57.21l-6.289-2.539-68.04 54.902c-.433-3.176-1.402-6.18-2.808-8.922l61.36-49.59-6.285-2.539-58.46 46.996c-.024-.027-.043-.054-.063-.082l-40.89-39.855-77.76 74.39h-8.188l-11.664 11.12 117.93.015c13.617-.344 24.805-10.484 26.777-23.636l74.37-60.27m-102.22 72.863l-5.703-.14h-75.32l61.45-58.63 32.39 30.781c2.563 2.965 4.11 6.832 4.11 11.06 0 9.348-7.579 16.93-16.926 16.93"/></g></svg>
